;-------------------------------Cut file parameters------------------------
; Input file name : topTrimSoftSwitchLaserOrWazer.dxf
; File rotation : 0 File scale : 1
; Material name : Glass, Soda Lime
; Material thickness : 0.125 in
; Cut path  : Centerline
; Cut quality : fineRate
; Raw Material width : 175.00mm
; Raw Material height : 175.00mm
;-------------------------------Do Not modify the Gcode file---------------
G90
G21
M1403
M1405 X1.31 Y-1.75
M1406 X176.31 Y-176.75
M1407 S3.0
M1410 1.5; Generated on Wam
M1411 Glass, Soda Lime
M1412 0.125 in
G0 X166.31 Y-89.25
M3
M8
G4 S3.
G1 X166.29 Y-90.65 F142.80
G1 X166.26 Y-92.04
G1 X166.21 Y-93.03 F99.96
G1 X166.17 Y-94.02
G1 X166.09 Y-95.01
G1 X166.02 Y-96.00
G1 X165.92 Y-96.99
G1 X165.82 Y-97.98
G1 X165.70 Y-98.96
G1 X165.57 Y-99.95
G1 X165.42 Y-100.93
G1 X165.27 Y-101.91
G1 X165.10 Y-102.88
G1 X164.92 Y-103.86
G1 X164.50 Y-105.80 F142.80
G1 X164.08 Y-107.74
G1 X163.83 Y-108.70 F99.96
G1 X163.58 Y-109.66
G1 X163.30 Y-110.61
G1 X163.03 Y-111.56
G1 X162.73 Y-112.51
G1 X162.44 Y-113.46
G1 X162.11 Y-114.40
G1 X161.79 Y-115.33
G1 X161.45 Y-116.26
G1 X161.10 Y-117.19
G1 X160.73 Y-118.11
G1 X160.36 Y-119.04
G1 X159.55 Y-120.85 F142.80
G1 X158.74 Y-122.66
G1 X158.30 Y-123.55 F99.96
G1 X157.86 Y-124.44
G1 X156.92 Y-126.18 F142.80
G1 X155.97 Y-127.93
G1 X155.47 Y-128.78 F99.96
G1 X154.96 Y-129.63
G1 X154.43 Y-130.47
G1 X153.91 Y-131.31
G1 X152.79 Y-132.95 F142.80
G1 X151.67 Y-134.59
G1 X151.08 Y-135.39 F99.96
G1 X150.49 Y-136.18
G1 X149.88 Y-136.97
G1 X149.26 Y-137.75
G1 X148.63 Y-138.51
G1 X148.00 Y-139.28
G1 X147.35 Y-140.03
G1 X146.70 Y-140.78
G1 X146.03 Y-141.51
G1 X145.36 Y-142.24
G1 X144.68 Y-142.96
G1 X143.99 Y-143.67
G1 X143.28 Y-144.37
G1 X142.58 Y-145.07
G1 X141.86 Y-145.75
G1 X141.13 Y-146.43
G1 X140.39 Y-147.09
G1 X139.65 Y-147.75
G1 X138.89 Y-148.39
G1 X138.14 Y-149.03
G1 X137.36 Y-149.65
G1 X136.59 Y-150.27
G1 X135.80 Y-150.87
G1 X135.01 Y-151.47
G1 X133.39 Y-152.62 F142.80
G1 X131.77 Y-153.76
G1 X130.09 Y-154.81
G1 X128.41 Y-155.87
G1 X126.68 Y-156.84
G1 X124.95 Y-157.81
G1 X123.17 Y-158.69
G1 X121.39 Y-159.57
G1 X119.57 Y-160.36
G1 X117.75 Y-161.15
G1 X115.89 Y-161.84
G1 X114.03 Y-162.53
G1 X112.14 Y-163.13
G1 X110.25 Y-163.73
G1 X109.29 Y-163.99 F99.96
G1 X108.33 Y-164.25
G1 X107.37 Y-164.49
G1 X106.41 Y-164.73
G1 X104.46 Y-165.13 F142.80
G1 X102.52 Y-165.53
G1 X101.54 Y-165.69 F99.96
G1 X100.56 Y-165.85
G1 X99.58 Y-165.99
G1 X98.60 Y-166.13
G1 X97.61 Y-166.24
G1 X96.63 Y-166.36
G1 X94.65 Y-166.51 F142.80
G1 X92.67 Y-166.65
G1 X90.69 Y-166.70
G1 X88.70 Y-166.75
G1 X86.72 Y-166.70
G1 X84.74 Y-166.64
G1 X83.75 Y-166.58 F99.96
G1 X82.76 Y-166.51
G1 X81.77 Y-166.42
G1 X80.78 Y-166.33
G1 X79.80 Y-166.22
G1 X78.81 Y-166.10
G1 X77.83 Y-165.96
G1 X76.85 Y-165.82
G1 X75.87 Y-165.66
G1 X74.89 Y-165.49
G1 X73.92 Y-165.30
G1 X72.94 Y-165.11
G1 X71.97 Y-164.89
G1 X71.01 Y-164.68
G1 X70.04 Y-164.44
G1 X69.08 Y-164.20
G1 X67.18 Y-163.64 F142.80
G1 X65.27 Y-163.09
G1 X63.40 Y-162.44
G1 X61.52 Y-161.79
G1 X60.60 Y-161.43 F99.96
G1 X59.67 Y-161.06
G1 X58.76 Y-160.68
G1 X57.85 Y-160.29
G1 X56.94 Y-159.89
G1 X56.04 Y-159.48
G1 X55.14 Y-159.05
G1 X54.25 Y-158.62
G1 X53.37 Y-158.16
G1 X52.48 Y-157.71
G1 X50.76 Y-156.73 F142.80
G1 X49.03 Y-155.76
G1 X48.18 Y-155.24 F99.96
G1 X47.34 Y-154.72
G1 X45.69 Y-153.61 F142.80
G1 X44.04 Y-152.51
G1 X43.24 Y-151.93 F99.96
G1 X42.44 Y-151.34
G1 X41.65 Y-150.74
G1 X40.86 Y-150.14
G1 X39.34 Y-148.87 F142.80
G1 X37.81 Y-147.60
G1 X36.35 Y-146.26
G1 X34.89 Y-144.92
G1 X33.50 Y-143.50
G1 X32.11 Y-142.08
G1 X30.80 Y-140.60
G1 X29.48 Y-139.11
G1 X28.85 Y-138.34 F99.96
G1 X28.22 Y-137.58
G1 X27.62 Y-136.79
G1 X27.01 Y-136.01
G1 X26.42 Y-135.21
G1 X25.83 Y-134.41
G1 X25.26 Y-133.60
G1 X24.70 Y-132.78
G1 X23.62 Y-131.11 F142.80
G1 X22.55 Y-129.44
G1 X22.05 Y-128.59 F99.96
G1 X21.54 Y-127.74
G1 X21.06 Y-126.87
G1 X20.58 Y-126.00
G1 X20.12 Y-125.12
G1 X19.66 Y-124.24
G1 X19.23 Y-123.35
G1 X18.79 Y-122.46
G1 X17.98 Y-120.65 F142.80
G1 X17.18 Y-118.83
G1 X16.81 Y-117.91 F99.96
G1 X16.45 Y-116.99
G1 X16.10 Y-116.06
G1 X15.76 Y-115.13
G1 X15.44 Y-114.19
G1 X15.12 Y-113.25
G1 X14.83 Y-112.30
G1 X14.53 Y-111.35
G1 X14.26 Y-110.40
G1 X13.99 Y-109.45
G1 X13.74 Y-108.48
G1 X13.50 Y-107.52
G1 X13.08 Y-105.58 F142.80
G1 X12.66 Y-103.64
G1 X12.34 Y-101.69
G1 X12.02 Y-99.73
G1 X11.81 Y-97.76
G1 X11.59 Y-95.78
G1 X11.52 Y-94.79 F99.96
G1 X11.45 Y-93.80
G1 X11.40 Y-92.81
G1 X11.36 Y-91.82
G1 X11.34 Y-90.83
G1 X11.32 Y-89.84
G1 X11.32 Y-88.85
G1 X11.33 Y-87.85
G1 X11.36 Y-86.86
G1 X11.39 Y-85.87
G1 X11.44 Y-84.88
G1 X11.50 Y-83.89
G1 X11.58 Y-82.90
G1 X11.66 Y-81.91
G1 X11.77 Y-80.93
G1 X11.87 Y-79.94
G1 X12.01 Y-78.96
G1 X12.14 Y-77.97
G1 X12.48 Y-76.02 F142.80
G1 X12.82 Y-74.06
G1 X13.25 Y-72.13
G1 X13.69 Y-70.19
G1 X13.95 Y-69.24 F99.96
G1 X14.20 Y-68.28
G1 X14.49 Y-67.33
G1 X14.77 Y-66.37
G1 X15.07 Y-65.43
G1 X15.38 Y-64.49
G1 X15.71 Y-63.55
G1 X16.03 Y-62.61
G1 X16.39 Y-61.69
G1 X16.74 Y-60.76
G1 X17.12 Y-59.84
G1 X17.49 Y-58.92
G1 X17.89 Y-58.02
G1 X18.29 Y-57.11
G1 X18.72 Y-56.21
G1 X19.14 Y-55.31
G1 X19.58 Y-54.43
G1 X20.03 Y-53.54
G1 X20.50 Y-52.67
G1 X20.97 Y-51.79
G1 X21.97 Y-50.08 F142.80
G1 X22.97 Y-48.37
G1 X24.06 Y-46.71
G1 X25.15 Y-45.05
G1 X25.73 Y-44.24 F99.96
G1 X26.30 Y-43.44
G1 X26.90 Y-42.64
G1 X27.50 Y-41.85
G1 X28.75 Y-40.31 F142.80
G1 X30.00 Y-38.77
G1 X31.33 Y-37.30
G1 X32.66 Y-35.83
G1 X33.36 Y-35.12 F99.96
G1 X34.05 Y-34.41
G1 X34.76 Y-33.72
G1 X35.47 Y-33.03
G1 X36.20 Y-32.35
G1 X36.93 Y-31.68
G1 X37.68 Y-31.03
G1 X38.42 Y-30.37
G1 X39.18 Y-29.74
G1 X39.94 Y-29.10
G1 X40.72 Y-28.48
G1 X41.50 Y-27.87
G1 X42.29 Y-27.27
G1 X43.09 Y-26.68
G1 X44.72 Y-25.55 F142.80
G1 X46.35 Y-24.42
G1 X47.19 Y-23.89 F99.96
G1 X48.02 Y-23.35
G1 X49.74 Y-22.35 F142.80
G1 X51.45 Y-21.35
G1 X53.21 Y-20.44
G1 X54.97 Y-19.53
G1 X56.78 Y-18.71
G1 X58.59 Y-17.89
G1 X59.51 Y-17.51 F99.96
G1 X60.42 Y-17.14
G1 X61.35 Y-16.79
G1 X62.28 Y-16.43
G1 X63.22 Y-16.11
G1 X64.15 Y-15.78
G1 X65.10 Y-15.48
G1 X66.04 Y-15.17
G1 X67.95 Y-14.64 F142.80
G1 X69.86 Y-14.10
G1 X71.80 Y-13.67
G1 X73.73 Y-13.23
G1 X74.71 Y-13.05 F99.96
G1 X75.68 Y-12.87
G1 X76.66 Y-12.72
G1 X77.64 Y-12.56
G1 X79.61 Y-12.32 F142.80
G1 X81.58 Y-12.09
G1 X82.57 Y-12.01 F99.96
G1 X83.56 Y-11.93
G1 X84.55 Y-11.87
G1 X85.54 Y-11.82
G1 X87.53 Y-11.79 F142.80
G1 X89.51 Y-11.75
G1 X90.50 Y-11.78 F99.96
G1 X91.49 Y-11.80
G1 X92.49 Y-11.84
G1 X93.48 Y-11.89
G1 X94.47 Y-11.96
G1 X95.46 Y-12.04
G1 X96.44 Y-12.13
G1 X97.43 Y-12.23
G1 X98.41 Y-12.35
G1 X99.40 Y-12.48
G1 X100.38 Y-12.63
G1 X101.36 Y-12.77
G1 X102.34 Y-12.95
G1 X103.31 Y-13.12
G1 X104.29 Y-13.32
G1 X105.26 Y-13.52
G1 X107.19 Y-13.99 F142.80
G1 X109.11 Y-14.46
G1 X110.07 Y-14.73 F99.96
G1 X111.02 Y-15.00
G1 X112.91 Y-15.62 F142.80
G1 X114.79 Y-16.23
G1 X116.64 Y-16.95
G1 X118.50 Y-17.66
G1 X120.31 Y-18.47
G1 X122.12 Y-19.27
G1 X123.89 Y-20.17
G1 X125.66 Y-21.07
G1 X127.38 Y-22.06
G1 X129.10 Y-23.05
G1 X129.94 Y-23.57 F99.96
G1 X130.78 Y-24.10
G1 X131.61 Y-24.65
G1 X132.44 Y-25.19
G1 X133.25 Y-25.76
G1 X134.06 Y-26.33
G1 X134.86 Y-26.92
G1 X135.66 Y-27.51
G1 X136.44 Y-28.12
G1 X137.22 Y-28.73
G1 X137.99 Y-29.36
G1 X138.76 Y-29.99
G1 X139.51 Y-30.64
G1 X140.26 Y-31.29
G1 X140.99 Y-31.96
G1 X141.72 Y-32.62
G1 X142.44 Y-33.31
G1 X143.16 Y-34.00
G1 X143.86 Y-34.70
G1 X144.55 Y-35.41
G1 X145.23 Y-36.13
G1 X145.91 Y-36.85
G1 X146.58 Y-37.59
G1 X147.24 Y-38.33
G1 X147.88 Y-39.09
G1 X148.52 Y-39.84
G1 X149.14 Y-40.61
G1 X149.77 Y-41.39
G1 X150.37 Y-42.18
G1 X150.97 Y-42.96
G1 X151.55 Y-43.77
G1 X152.14 Y-44.57
G1 X152.70 Y-45.39
G1 X153.26 Y-46.21
G1 X154.32 Y-47.88 F142.80
G1 X155.38 Y-49.56
G1 X155.88 Y-50.42 F99.96
G1 X156.37 Y-51.28
G1 X156.85 Y-52.15
G1 X157.32 Y-53.02
G1 X158.20 Y-54.80 F142.80
G1 X159.09 Y-56.57
G1 X159.49 Y-57.48 F99.96
G1 X159.90 Y-58.38
G1 X160.28 Y-59.30
G1 X160.67 Y-60.21
G1 X161.03 Y-61.14
G1 X161.39 Y-62.06
G1 X161.72 Y-63.00
G1 X162.06 Y-63.93
G1 X162.37 Y-64.87
G1 X162.68 Y-65.81
G1 X162.97 Y-66.76
G1 X163.26 Y-67.71
G1 X163.76 Y-69.63 F142.80
G1 X164.26 Y-71.55
G1 X164.48 Y-72.52 F99.96
G1 X164.69 Y-73.49
G1 X164.88 Y-74.46
G1 X165.07 Y-75.44
G1 X165.24 Y-76.41
G1 X165.40 Y-77.39
G1 X165.54 Y-78.37
G1 X165.68 Y-79.36
G1 X165.79 Y-80.34
G1 X165.91 Y-81.33
G1 X166.00 Y-82.32 F71.40
G1 X166.08 Y-83.30
G1 X166.19 Y-85.29 F142.80
G1 X166.29 Y-87.27
G1 X166.30 Y-88.26 F71.40
G1 X166.31 Y-89.25
G1 X166.31 Y-89.25
G4 S1.
M9
G4 S1.
M5
G4 S1.
G0 X176.31 Y-1.75
M3
M8
G4 S3.
G1 X176.31 Y-6.75 F142.80
G1 X176.31 Y-11.75
G1 X176.31 Y-16.75
G1 X176.31 Y-21.75
G1 X176.31 Y-26.75
G1 X176.31 Y-31.75
G1 X176.31 Y-36.75
G1 X176.31 Y-41.75
G1 X176.31 Y-46.75
G1 X176.31 Y-51.75
G1 X176.31 Y-56.75
G1 X176.31 Y-61.75
G1 X176.31 Y-66.75
G1 X176.31 Y-71.75
G1 X176.31 Y-76.75
G1 X176.31 Y-81.75
G1 X176.31 Y-86.75
G1 X176.31 Y-89.25
G1 X176.31 Y-94.25
G1 X176.31 Y-99.25
G1 X176.31 Y-104.25
G1 X176.31 Y-109.25
G1 X176.31 Y-114.25
G1 X176.31 Y-119.25
G1 X176.31 Y-124.25
G1 X176.31 Y-129.25
G1 X176.31 Y-134.25
G1 X176.31 Y-139.25
G1 X176.31 Y-144.25
G1 X176.31 Y-149.25
G1 X176.31 Y-154.25
G1 X176.31 Y-159.25
G1 X176.31 Y-164.25
G1 X176.31 Y-169.25
G1 X176.31 Y-174.25 F99.96
G1 X176.31 Y-176.75
G1 X171.31 Y-176.75
G1 X166.31 Y-176.75 F142.80
G1 X161.31 Y-176.75
G1 X156.31 Y-176.75
G1 X151.31 Y-176.75
G1 X146.31 Y-176.75
G1 X141.31 Y-176.75
G1 X136.31 Y-176.75
G1 X131.31 Y-176.75
G1 X126.31 Y-176.75
G1 X121.31 Y-176.75
G1 X116.31 Y-176.75
G1 X111.31 Y-176.75
G1 X106.31 Y-176.75
G1 X101.31 Y-176.75
G1 X96.31 Y-176.75
G1 X91.31 Y-176.75
G1 X88.81 Y-176.75
G1 X83.81 Y-176.75
G1 X78.81 Y-176.75
G1 X73.81 Y-176.75
G1 X68.81 Y-176.75
G1 X63.81 Y-176.75
G1 X58.81 Y-176.75
G1 X53.81 Y-176.75
G1 X48.81 Y-176.75
G1 X43.81 Y-176.75
G1 X38.81 Y-176.75
G1 X33.81 Y-176.75
G1 X28.81 Y-176.75
G1 X23.81 Y-176.75
G1 X18.81 Y-176.75
G1 X13.81 Y-176.75
G1 X8.81 Y-176.75
G1 X3.81 Y-176.75 F99.96
G1 X1.31 Y-176.75
G1 X1.31 Y-171.75
G1 X1.31 Y-166.75 F142.80
G1 X1.31 Y-161.75
G1 X1.31 Y-156.75
G1 X1.31 Y-151.75
G1 X1.31 Y-146.75
G1 X1.31 Y-141.75
G1 X1.31 Y-136.75
G1 X1.31 Y-131.75
G1 X1.31 Y-126.75
G1 X1.31 Y-121.75
G1 X1.31 Y-116.75
G1 X1.31 Y-111.75
G1 X1.31 Y-106.75
G1 X1.31 Y-101.75
G1 X1.31 Y-96.75
G1 X1.31 Y-91.75
G1 X1.31 Y-89.25
G1 X1.31 Y-84.25
G1 X1.31 Y-79.25
G1 X1.31 Y-74.25
G1 X1.31 Y-69.25
G1 X1.31 Y-64.25
G1 X1.31 Y-59.25
G1 X1.31 Y-54.25
G1 X1.31 Y-49.25
G1 X1.31 Y-44.25
G1 X1.31 Y-39.25
G1 X1.31 Y-34.25
G1 X1.31 Y-29.25
G1 X1.31 Y-24.25
G1 X1.31 Y-19.25
G1 X1.31 Y-14.25
G1 X1.31 Y-9.25
G1 X1.31 Y-4.25 F99.96
G1 X1.31 Y-1.75
G1 X6.31 Y-1.75
G1 X11.31 Y-1.75 F142.80
G1 X16.31 Y-1.75
G1 X21.31 Y-1.75
G1 X26.31 Y-1.75
G1 X31.31 Y-1.75
G1 X36.31 Y-1.75
G1 X41.31 Y-1.75
G1 X46.31 Y-1.75
G1 X51.31 Y-1.75
G1 X56.31 Y-1.75
G1 X61.31 Y-1.75
G1 X66.31 Y-1.75
G1 X71.31 Y-1.75
G1 X76.31 Y-1.75
G1 X81.31 Y-1.75
G1 X86.31 Y-1.75
G1 X88.81 Y-1.75
G1 X93.81 Y-1.75
G1 X98.81 Y-1.75
G1 X103.81 Y-1.75
G1 X108.81 Y-1.75
G1 X113.81 Y-1.75
G1 X118.81 Y-1.75
G1 X123.81 Y-1.75
G1 X128.81 Y-1.75
G1 X133.81 Y-1.75
G1 X138.81 Y-1.75
G1 X143.81 Y-1.75
G1 X148.81 Y-1.75
G1 X153.81 Y-1.75
G1 X158.81 Y-1.75
G1 X163.81 Y-1.75
G1 X168.81 Y-1.75
G1 X173.81 Y-1.75 F71.40
G1 X176.31 Y-1.75
G1 X176.31 Y-1.75
G4 S1.
M9
G4 S1.
M5
G4 S1.
M1413 00:09:30
M1404
